!!!!SEGMENT: pl-kk--kk-i-10--016-002_anonim--missa-supra-resonet-et-in-terra.krn
!!!cenid: 16xx:1209
!!!COM: Anonim
!!!COM-rismID: pe30004985
!!!CDT:
!!!CNT:
!!!OPR: Missa supra Resonet
!!!OTL: Et in terra
!!!OMV: 002
!!!PDT:
!!!AGN: Sacred; Mass
!!!SMS-siglum: PL-Kk
!!!SMS-shelfmark: Kk.I.10
!!!SMS-shelfwork: 016-002 M
!!!SMS-variant:
!!!SMS-altvar:
!!!NIFC-rismSourceID: 1001153963
!!!NIFC-islandoraID: pl-kk:2434
!!!URL-pdf-islandora: https://repozytorium.nifc.pl/islandora/object/pl-kk%3A2434/datastream/PDF/view
!!!URL-scan: https://polish.musicsources.pl/pl/lokalizacje/galeria/rekopisy/5737 @EN{Scan on Polish Music Herritage in Open Access Website} @PL{Skany w portalu Dziedzictwo Muzyki Polskiej w otwartym dostępie}
!!!ONB-nifc: UWAGA: Części Mszy: 1. Kyrie, 2. Et in terra. A (skan 0027-0028), T (0076-0077), B (0126-0127).
!!!AIN: 1 alto 1 empty 1 tenor
!!!key:
**kern	**text	**dynam	**kern	**text	**dynam	**kern	**text	**dynam
*part3	*part3	*part3	*part2	*part2	*part2	*part1	*part1	*part1
*staff3	*staff3	*	*staff2	*staff2	*	*staff1	*staff1	*
*Iempty	*	*	*Itenor	*	*	*Ialto	*	*
*I"[Baſso]	*	*	*I"[Tenor]	*	*	*I"[Alt]	*	*
*clefF4	*	*	*clefC4	*	*	*clefC3	*	*
*k[]	*	*	*k[]	*	*	*k[]	*	*
*G:	*	*	*G:	*	*	*G:	*	*
*M3/2	*	*	*M3/2	*	*	*M3/2	*	*
*all\right	*	*	*all\right	*	*	*all\right	*	*
*2\right	*	*	*2\right	*	*	*2\right	*	*
=1	=1	=1	=1	=1	=1	=1	=1	=1
!	!	!	!	!	!	!LO:TX:t=P:problem=all\right&colon; global	!	!
!	!	!	!	!	!	!LO:TX:a:B:t=Prestissimo	!	!
1GG	Et	.	1B	Et	.	1d	Et	.
2BB/	in	.	2B\	in	.	2d\	in	.
=2	=2	=2	=2	=2	=2	=2	=2	=2
1C	ter-	.	1A	ter-	.	1e	ter-	.
2D/	-ra	.	2A/	-ra	.	2f#X\	-ra	.
=3	=3	=3	=3	=3	=3	=3	=3	=3
1GG	pax	.	1d	pax	.	1g	pax	.
2GG/	ho-	.	2d,\	ho-	.	2g\	ho-	.
=4-	=4	=4	=4	=4	=4	=4	=4	=4
2.G\	-mi-	.	2.d\	-mi-	.	2.g\	-mi-	.
4G\	-ni-	.	4d\	-ni-	.	4g\	-ni-	.
2G\	-bus	.	2d\	-bus	.	2g\	-bus	.
=5	=5	=5	=5	=5	=5	=5	=5	=5
2.D/	bo-	.	2.d\	bo-	.	2.f#X\	bo-	.
!	!	!	!	!	!	!LO:TX:a:t=P:problem=# above	!	!
4D/	-nae	.	4d\	-nae	.	4f#X\	-nae	.
2D/	Vo-	.	2A/	Vo-	.	2f#\	Vo-	.
=6	=6	=6	=6	=6	=6	=6	=6	=6
2D/	-lun-	.	2A/	-lun-	.	2d\	-lun-	.
1AA	-ta-	.	1A	-ta-	.	1e	-ta-	.
=7-	=7	=7	=7-	=7	=7	=7-	=7	=7
1D,	-tis	.	1A,	-tis	.	1f#X	-tis	.
2G\	lau-	.	2d\	lau-	.	2g\	lau-	.
=8	=8	=8	=8	=8	=8	=8	=8	=8
1G	-da-	.	1d	-da-	.	1g	-da-	.
2C/	-mus	.	2e\	-mus	.	2e\	-mus	.
!	!	!	!	!	!	!LO:LB:g=original	!	!
=9	=9	=9	=9	=9	=9	=9	=9	=9
1G	te	.	2d\	te	.	2g\	te	.
.	.	.	2d\	be-	.	2g\	be-	.
2GG/	be-	.	2d\	-ne-	.	2g\	-ne-	.
!	!	!	!LO:LB:g=original	!	!	!	!	!
=10-	=10	=10	=10	=10	=10	=10	=10	=10
1AA	-ne-	.	1c	-di-	.	4e\	-di-	.
.	.	.	.	.	.	(4d\	.	.
.	.	.	.	.	.	4e\)	.	.
.	.	.	.	.	.	4f'\	.	.
2BB/	-di-	.	2B\	-ci-	.	2g\	-ci-	.
!LO:LB:g=original	!	!	!	!	!	!	!	!
=11	=11	=11	=11	=11	=11	=11	=11	=11
2C/	-ci-	.	1A	-mus	.	2e\	.	.
2.D/	.	.	.	.	.	1d	-mus	.
.	.	.	2A/	te	.	.	.	.
4D/	-mus	.	.	.	.	.	.	.
=12	=12	=12	=12-	=12	=12	=12	=12	=12
!	!	!	!	!	!	!LO:TX:a:t=vi	!	!
2GG/	te	.	1B,	a-	.	2d\	te	.
!	!	!	!	!	!	!LO:TX:t=P:problem=fragment zapisany u dołu strony za pomocą odnośnika vi-de	!	!
!	!	!	!	!	!	!LO:TX:b:t=miaſto pauſow	!	!
!	!	!	!	!	!	!	!	!
!	!	!	!	!	!	!LO:TX:a:t=de	!	!
2G\	a-	.	.	.	.	2d/	.	.
2G\	-do-	.	2B\	-do-	.	2g\	.	.
=13	=13	=13	=13	=13	=13	=13	=13	=13
2.C/	-ra-	.	1c	-ra-	.	1g	.	.
4D\	.	.	.	.	.	.	.	.
(4E\	-mus	.	2c\	-mus	.	2g\	.	.
4F\)	.	.	.	.	.	.	.	.
=14-	=14	=14	=14	=14	=14	=14	=14	=14
1G	te	.	1B	te	.	1g	.	.
2GG/	glo-	.	2B\	glo-	.	2g\	.	.
=15	=15	=15	=15-	=15	=15	=15	=15	=15
1AA	-ri-	.	1A	-ri-	.	1e	.	.
2BB/	-fi-	.	2G/	-fi-	.	2d\	.	.
=16-	=16	=16	=16	=16	=16	=16	=16	=16
1C	-ca-	.	1G	-ca-	.	1e	.	.
!	!	!	!LO:TX:b:t=P:problem=# below	!	!	!	!	!
2D/	-mus	.	2F#X/	-mus	.	2d\	.	.
=17	=17	=17	=17-	=17	=17	=17	=17	=17
!	!	!	!	!	!	!LO:TX:t=gratia	!	!
1.GG	te	.	1.G	te	.	1.d	te	.
=18	=18	=18	=18	=18	=18	=18	=18	=18
2.E\	Gra-	.	2.B\	Gra-	.	2.g#X\	Gra-	.
4E\	-ti-	.	4B\	-ti-	.	4g#\	-ti-	.
2E\	-as	.	2B\	-as	.	2g#\	-as	.
=19	=19	=19	=19	=19	=19	=19	=19	=19
2.AA/	a-	.	2.c\	a-	.	2.a\	a-	.
4AA/	-gi-	.	4c\	-gi-	.	4a\	-gi-	.
2AA/	-mus	.	2c\	-mus	.	2a\	-mus	.
=20	=20	=20	=20	=20	=20	=20	=20	=20
1E	ti-	.	1B	ti-	.	1g#X	ti-	.
2E\	-bi	.	2B\	-bi	.	2g#\	-bi	.
!LO:LB:g=original	!	!	!LO:LB:g=original	!	!	!	!	!
=21	=21	=21	=21	=21	=21	=21	=21	=21
*	*ij	*	*	*ij	*	*	*ij	*
!	!	!	!	!	!	!LO:N:acc=-	!	!
2.C/	Gra-	.	2.c\	Gra-	.	2.gn\	Gra-	.
4C/	-ti-	.	4c\	-ti-	.	4g\	-ti-	.
2C/	-as	.	2c\	-as	.	2g\	-as	.
!	!	!	!	!	!	!LO:LB:g=original	!	!
=22	=22	=22	=22	=22	=22	=22	=22	=22
2.G\	a-	.	2.B\	a-	.	2.g\	a-	.
4G\	-gi-	.	4B\	-gi-	.	4g\	-gi-	.
2G\	-mus	.	2B\	-mus	.	2g\	-mus	.
=23	=23	=23	=23	=23	=23	=23	=23	=23
1C	ti-	.	1e	ti-	.	1g	ti-	.
2C,/	-bi	.	2e,\	-bi	.	2g\	-bi	.
*	*Xij	*	*	*Xij	*	*	*Xij	*
=24-	=24	=24	=24-	=24	=24	=24	=24	=24
1C	pro-	.	1c	pro-	.	1g	pro-	.
2C/	-pter	.	2c\	-pter	.	2e\	-pter	.
=25	=25	=25	=25	=25	=25	=25	=25	=25
1C	Ma-	.	1G	ma-	.	(2.c\	Ma-	.
.	.	.	.	.	.	4d\)	.	.
2C/	-gnam	.	2G/	-gnam	.	(4e\	-gnam	.
.	.	.	.	.	.	4f\)	.	.
=26-	=26	=26	=26-	=26	=26	=26	=26	=26
2C/	glo-	.	2c\	glo-	.	2g\	glo-	.
4C/	-ri-	.	4c\	-ri-	.	4g\	-ri-	.
4C/	-am	.	4c\	-am	.	4g\	-am	.
2F\	tu-	.	2A/	tu-	.	2a\	tu-	.
=27	=27	=27	=27	=27	=27	=27	=27	=27
2C/	-a(m)	.	2G/	-am	.	2g\	-am	.
4C/	D(o-	.	4e\	D(o-	.	4e\	D(o-	.
4C/	-mi)-	.	4e\	-mi)-	.	4e\	-mi)-	.
2AA/	-ne	.	2c\	-ne	.	2f\	-ne	.
=28	=28	=28	=28	=28	=28	=28	=28	=28
2.FF/	De-	.	2.f\	De-	.	1a	De-	.
4GG/	.	.	8e\L	.	.	.	.	.
.	.	.	8d\J	.	.	.	.	.
(4AA/	-us	.	4c\	-us	.	2f\	-us	.
4BB/)	.	.	4d\	.	.	.	.	.
=29	=29	=29	=29-	=29	=29	=29	=29	=29
2.C/	Rex	.	2.e\	Rex	.	2.e\	Rex	.
4C/	Cae-	.	4e\	Cae-	.	4e\	Cae-	.
2D/	-leſ-	.	2f\	-le-	.	2d\	-leſ-	.
!	!	!	!LO:LB:g=original	!	!	!	!	!
=30	=30	=30	=30	=30	=30	=30	=30	=30
2C/	-tis	.	2e\	-ſtis	.	2e\	-tis	.
2C/	De-	.	2c\	De-	.	2g\	De-	.
2D/	-us	.	2B\	-us	.	2f\	-us	.
!LO:LB:g=original	!	!	!	!	!	!LO:LB:g=original	!	!
=31	=31	=31	=31	=31	=31	=31	=31	=31
2C/	Pa-	.	2c\	Pa-	.	2e\	Pa-	.
2C/	-ter	.	2c\	-ter	.	2e\	-ter	.
2C/	om-	.	2e\	O-	.	2g\	Om-	.
=32	=32	=32	=32	=32	=32	=32	=32	=32
2.F\	-ni-	.	4A\	-mni-	.	2.f\	-ni-	.
.	.	.	4B\	.	.	.	.	.
.	.	.	4.c\	.	.	.	.	.
4F\	-po-	.	.	.	.	4e\	-po-	.
.	.	.	8c\	-po-	.	.	.	.
2G\	-tens	.	2B\	-tens	.	2d\	-tens	.
=33	=33	=33	=33	=33	=33	=33	=33	=33
2.C/	Do-	.	2.c\	Do-	.	2.e\	Do-	.
4C/	-mi-	.	4c\	-mi-	.	4e\	-mi-	.
2C/	-ne	.	2e\	-ne	.	2g\	-ne	.
=34	=34	=34	=34-	=34	=34	=34	=34	=34
1C	Fi-	.	1c	Fi-	.	1e	Fi-	.
2AA/	-li	.	2c\	-li	.	2c/	-li	.
=35-	=35	=35	=35	=35	=35	=35	=35	=35
4C/	Fi-	.	4c\	Fi-	.	1e	Fi-	.
4D/	.	.	8B\L	.	.	.	.	.
.	.	.	8A\J	.	.	.	.	.
4E\	.	.	4G\	.	.	.	.	.
4F\	.	.	4A\	.	.	.	.	.
2G\	-li	.	4B\	.	.	2d\	-li	.
.	.	.	4c\	.	.	.	.	.
=36	=36	=36	=36	=36	=36	=36	=36	=36
1D	U-	.	1d	-li	.	1f	u-	.
2E\	-ni-	.	2c\	U-	.	2e\	-ni	.
=37-	=37	=37	=37-	=37	=37	=37	=37	=37
2F\	-ge-	.	2c\	-ni	.	1d	ge-	.
2G\	.	.	2.c\	ge-	.	.	.	.
2GG/	-ni-	.	.	.	.	2d\	-ni-	.
.	.	.	4B\	-ni-	.	.	.	.
!	!	!	!LO:LB:g=original	!	!	!	!	!
=38||	=38||	=38||	=38||	=38||	=38||	=38||	=38||	=38||
*M4/4	*	*	*M4/4	*	*	*M4/4	*	*
*met(c)	*	*	*met(c)	*	*	*met(c)	*	*
2C/	-te	.	2c\	-te	.	2e\	-te	.
2.C/	Je-	.	2G/	Je-	.	4c\	Je-	.
.	.	.	.	.	.	4d\	.	.
=39	=39	=39	=39	=39	=39	=39	=39	=39
.	.	.	0G	-ſu	.	4e\	.	.
4D/	.	.	.	.	.	4f\	.	.
4E\	.	.	.	.	.	4g\	.	.
4F\	.	.	.	.	.	4a\	.	.
!LO:LB:g=original	!	!	!	!	!	!	!	!
=40	=40	=40	=40-	=40	=40	=40	=40	=40
!	!	!	!	!	!	!	!	!
2G\	.	.	.	.	.	1g	-ſu	.
2E\	-ſu	.	.	.	.	.	.	.
!	!	!	!	!	!	!LO:LB:g=original	!	!
=41-	=41	=41	=41-	=41	=41	=41	=41	=41
0D	Chri-	.	2c\	Chri-	.	2f#X\	Chri-	.
.	.	.	2B\	.	.	1g\	.	.
=42-	=42	=42	=42	=42	=42	=42-	=42	=42
.	.	.	1A	.	.	.	.	.
.	.	.	.	.	.	2f#X\	.	.
=43	=43	=43	=43	=43	=43	=43	=43	=43
2GG;,/	-ſte	.	2G/	-ſte	.	2g;,\	-ſte	.
4G\	Do-	.	4B\	Do-	.	4g\	Do-	.
8G\	-mi-	.	8B\	-mi-	.	8g\	-mi-	.
8G\	-ne	.	8B\	-ne	.	8g\	-ne	.
=44	=44	=44	=44	=44	=44	=44	=44	=44
4G\	De-	.	4B\	De-	.	4g\	De-	.
4E\	-us	.	4c\	-us	.	4g\	-us	.
4F\	a-	.	4A\	a-	.	4f\	a-	.
4D/	-gnus	.	4B\	-gnus	.	4f\	-gnus	.
=45	=45	=45	=45	=45	=45	=45	=45	=45
2C/	De-	.	2c\	De-	.	4.e\	De-	.
.	.	.	.	.	.	8f\	.	.
4GG,/	-i	.	4B\	-i	.	8g\L	.	.
.	.	.	.	.	.	16f\L	.	.
.	.	.	.	.	.	16e\JJ	.	.
(4.G\	Fi-	.	4.B\	Fi-	.	4d\	-i	.
=46	=46	=46	=46	=46	=46	=46	=46	=46
.	.	.	.	.	.	8g\	Fi-	.
8G\	-li-	.	8B\	-li-	.	8g\	-li-	.
4E\	-us	.	4c\	-us	.	4g\	-us	.
4.F\	Pa-	.	8A\L	Pa-	.	4.a\	Pa-	.
.	.	.	8G\	.	.	.	.	.
.	.	.	8A\	.	.	.	.	.
16E\LL	.	.	8B\J	.	.	16g\LL	.	.
16D\JJ	.	.	.	.	.	16f\JJ	.	.
=47	=47	=47	=47	=47	=47	=47	=47	=47
8C/L	.	.	8c\L	.	.	4e\	-tris	.
8D/J	.	.	16B\L	.	.	.	.	.
.	.	.	16A\JJ	.	.	.	.	.
8E\L	.	.	8G\L	.	.	4r	.	.
8F\J	.	.	8A\J	.	.	.	.	.
!	!	!	!LO:LB:g=original	!	!	!	!	!
4.G\	.	.	8B\L	.	.	2r	.	.
.	.	.	8A\	.	.	.	.	.
.	.	.	8B\	.	.	.	.	.
16F\LL	.	.	8c\J	.	.	.	.	.
16E\JJ	.	.	.	.	.	.	.	.
=48	=48	=48	=48	=48	=48	=48	=48	=48
4D\	.	.	4d\	.	.	1r	.	.
4E\	.	.	2c\	.	.	.	.	.
4F\	.	.	.	.	.	.	.	.
4G\	.	.	4B\	.	.	.	.	.
!LO:LB:g=original	!	!	!	!	!	!LO:LB:g=original	!	!
=49	=49	=49	=49	=49	=49	=49	=49	=49
4C,/	-tris	.	4c\	-tris	.	4r	.	.
4C/	Qui	.	4e\	Qui	.	4g\	Qui	.
4G\	tol-	.	4d\	tol-	.	4g\	tol-	.
8G\	-lis	.	8d\	-lis	.	8g\	-lis	.
8E\	pec-	.	8e\	pec-	.	8g\	pec-	.
=50	=50	=50	=50	=50	=50	=50	=50	=50
4F\	-ca-	.	4c\	-ca-	.	4a\	-ca-	.
8F\	-ta	.	8c\	-ta	.	8a\	-ta	.
8D\	pec-	.	8d\	pec-	.	8f\	pec-	.
4E\	-ca-	.	8B\L	-ca-	.	4g\	-ca-	.
.	.	.	16A\L	.	.	.	.	.
.	.	.	16B\JJ	.	.	.	.	.
4C/	-ta	.	2c\	.	.	4g\	-ta	.
=51	=51	=51	=51-	=51	=51	=51	=51	=51
1D	Mun-	.	.	.	.	1d	mun-	.
.	.	.	4B\	-ta	.	.	.	.
.	.	.	2A\	-mun-	.	.	.	.
=52-	=52	=52	=52	=52	=52	=52-	=52	=52
4GG,/	-di	.	4B\	-di	.	4d\	-di	.
8G\	Mi-	.	8B\	Mi-	.	8g\	Mi-	.
8G\	-ſe-	.	8B\	-ſe-	.	8g\	-ſe-	.
4G\	-re-	.	4B\	-re-	.	4.g\	-re-	.
4E\	-re	.	(2e\	-re	.	.	.	.
.	.	.	.	.	.	8g\	-re	.
=53	=53	=53	=53-	=53	=53	=53	=53	=53
4.F\	No-	.	.	.	.	8f\L	No-	.
.	.	.	.	.	.	8g\J	.	.
.	.	.	4d\)	.	.	4.a\	.	.
8G\	.	.	.	.	.	.	.	.
2A\	.	.	4d\	No-	.	.	.	.
.	.	.	.	.	.	16g\LL	.	.
.	.	.	.	.	.	16f\JJ	.	.
.	.	.	4c#X\	.	.	4e\	-bis	.
=54	=54	=54	=54	=54	=54	=54	=54	=54
4D/	-bis	.	4d\	-bis	.	4f\	Qui	.
4D/	qui	.	4B\	Qui	.	4f#X\	tol-	.
!	!	!	!LO:LB:g=original	!	!	!	!	!
4G\	tol-	.	4B\	tol-	.	4g\	.	.
8E\	-lis	.	8c\	-lis	.	8g\	-lis	.
8E\	pec-	.	8c\	pec-	.	8g\	pec-	.
=55	=55	=55	=55	=55	=55	=55	=55	=55
4F\	-ca-	.	4c\	-ca-	.	4f\	-ca-	.
8D\	-ta	.	8B\	-ta	.	8f\	-ta	.
8D\	pec-	.	8B\	pec-	.	8f\	pec-	.
!	!	!	!	!	!	!LO:LB:g=original	!	!
4E\	-ca-	.	4B\	-ca-	.	4.e\	-ca-	.
8C/	-ta	.	4A\	-ta	.	.	.	.
8C/	pec-	.	.	.	.	8e\	-ta	.
!LO:LB:g=original	!	!	!	!	!	!	!	!
=56	=56	=56	=56	=56	=56	=56	=56	=56
4D/	-ca-	.	4A\	pec-	.	2d\	mun-	.
4BB/	-ta	.	8B\	-ca-	.	.	.	.
.	.	.	8d\	-ta	.	.	.	.
4C/	Mun-	.	4c\	Mun-	.	4e\	.	.
4D/	.	.	4A\	.	.	(4d\	.	.
=57	=57	=57	=57	=57	=57	=57	=57	=57
1GG	-di	.	1B	-di	.	1d)	-di	.
=58||	=58||	=58||	=58||	=58||	=58||	=58||	=58||	=58||
*M3/2	*	*	*M3/2	*	*	*M3/2	*	*
1G	-Suſ-	.	1B	-Suſ-	.	1g	-Suſ-	.
2GG/	-ci-	.	2G/	-ci-	.	2g\	-ci-	.
=59-	=59	=59	=59	=59	=59	=59	=59	=59
1.GG	-pe	.	1.B	-pe	.	1.g	-pe	.
=60	=60	=60	=60	=60	=60	=60	=60	=60
1G	de-	.	1d	de-	.	1g	de-	.
2F#X\	-pre-	.	2d\	-pre-	.	2a\	-pre-	.
=61-	=61	=61	=61-	=61	=61	=61-	=61	=61
1G	-ca-	.	1d	-ca-	.	1g	-ca-	.
2C/	-ti-	.	2e\	-ti-	.	2g\	-ti-	.
=62	=62	=62	=62	=62	=62	=62	=62	=62
2.GG/	-o-	.	2.G/	-o-	.	2.d\	-o-	.
4GG/	-nem	.	4G/	-nem	.	4d\	-nem	.
!	!	!	!LO:TX:b:t=P:problem=# below	!	!	!	!	!
2D/	No-	.	2F#X/	No-	.	2d\	No-	.
=63-	=63	=63	=63-	=63	=63	=63-	=63-	=63
1.GG	-ſtram	.	1.G	-ſtra(m)	.	1.d	-ſtram	.
!	!	!	!LO:PB:g=original	!	!	!	!	!
=64	=64	=64	=64	=64	=64	=64	=64	=64
1G	Qui	.	1G	Qui	.	1g	Qui	.
2F#X\	-ſe-	.	2A/	-ſe-	.	2a\	-ſe-	.
=65-	=65	=65	=65	=65	=65	=65-	=65	=65
1G	des	.	1B	-des	.	1g	-des	.
2C/	ad	.	2c\	ad	.	2g\	ad	.
!	!	!	!	!	!	!LO:PB:g=original	!	!
=66	=66	=66	=66	=66	=66	=66	=66	=66
2GG/	dex-	.	2B\	dex-	.	2g\	dex-	.
4GG/	-te-	.	4B\	-te-	.	4g\	-te-	.
4GG/	-ram	.	4B\	-ram	.	4g\	-ram	.
2D/	Pa-	.	2A/	Pa-	.	2f#X\	Pa-	.
!LO:PB:g=original	!	!	!	!	!	!	!	!
=67	=67	=67	=67	=67	=67	=67	=67	=67
2GG,/	-tris	.	2G/	-tris	.	2g\	-tris	.
2GG/	Mi-	.	2d\	Mi-	.	2g\	Mi-	.
2GG/	-ſe-	.	2d\	-ſe-	.	2g\	-ſe-	.
=68	=68	=68	=68	=68	=68	=68	=68	=68
1AA	-re-	.	1c	-re-	.	1e	-re-	.
2BB/	.	.	2B\	-re	.	2d\	-re	.
=69	=69	=69	=69	=69	=69	=69	=69	=69
2C/	-re	.	2.A/	No-	.	2e\	No-	.
1D	No-	.	.	.	.	1d	.	.
.	.	.	4G/	.	.	.	.	.
.	.	.	2A/	.	.	.	.	.
=70-	=70	=70	=70	=70	=70	=70-	=70	=70
1.GG	-bis	.	1.B	-bis	.	1.d	-bis	.
=71	=71	=71	=71	=71	=71	=71	=71	=71
2.C/	Quo-	.	2.c\	Quo-	.	2.e\	Quo-	.
4C/	-ni-	.	4c\	-ni-	.	4g\	-ni-	.
2C/	-am	.	2c\	-am	.	2g\	-am	.
=72	=72	=72	=72	=72	=72	=72	=72	=72
*	*ij	*	*	*ij	*	*	*ij	*
2.GG/	Quo-	.	2.B\	Quo-	.	2.g\	Quo-	.
4GG/	-ni-	.	4B\	-ni-	.	4g\	-ni-	.
2C/	-am	.	2c\	-am	.	2g\	-am	.
*	*Xij	*	*	*Xij	*	*	*Xij	*
=73	=73	=73	=73	=73	=73	=73	=73	=73
2C/	tu	.	2e\	tu	.	2g\	tu	.
2E\	-ſo-	.	2e\	-ſo-	.	2g\	-ſo-	.
2G\	-lus	.	2d\	-lus	.	2g\	-lus	.
!	!	!	!LO:LB:g=original	!	!	!	!	!
=74	=74	=74	=74	=74	=74	=74	=74	=74
1C	San-	.	2c\	San-	.	1g	San-	.
.	.	.	2c\	-ctus	.	.	.	.
2GG/	-ctus	.	2r	.	.	2g,\	-ctus	.
=75	=75	=75	=75	=75	=75	=75-	=75	=75
2C/	tu	.	2e\	tu	.	1.g	tu	.
2E\	-ſo-	.	2e\	-ſo-	.	.	.	.
2G\	-lus	.	2d\	-lus	.	.	.	.
!	!	!	!	!	!	!LO:LB:g=original	!	!
=76-	=76	=76	=76	=76	=76	=76	=76	=76
2.C/	Do-	.	2.c\	Do-	.	2g\	tu	.
.	.	.	.	.	.	2g\	-ſo-	.
4C/	-mi-	.	4c\	-mi-	.	.	.	.
2GG/	-n(us)	.	2B\	-nus	.	2g\	-lus	.
!LO:LB:g=original	!	!	!	!	!	!	!	!
=77	=77	=77	=77	=77	=77	=77	=77	=77
2C/	tu	.	2.e\	tu	.	2.g\	Do-	.
2E\	-ſo-	.	.	.	.	.	.	.
.	.	.	4e\	-ſo-	.	4g\	-mi-	.
2G\	-lus	.	4d\	-lus	.	2g\	-nus	.
.	.	.	4B\	al-	.	.	.	.
=78	=78	=78	=78	=78	=78	=78	=78	=78
2.C/	Do-	.	2c\	-tiſ-	.	1.g	tu	.
.	.	.	2c\	-si-	.	.	.	.
4C/	-mi-	.	.	.	.	.	.	.
2GG/	-nus	.	2B\	-mus	.	.	.	.
=79	=79	=79	=79	=79	=79	=79-	=79	=79
2C/	tu	.	2.e\	tu	.	2g\	-ſo-	.
2E\	-ſo-	.	.	.	.	2g\	-lus	.
.	.	.	4e\	-ſo-	.	.	.	.
4G\	-lus	.	4d\	-lus	.	2g\	al-	.
4G\	al-	.	4d\	al-	.	.	.	.
=80	=80	=80	=80	=80	=80	=80	=80	=80
2.C/	-tiſ-	.	2.c\	-tiſ-	.	2.g\	-tiſ-	.
4C/	-si-	.	4c\	-si-	.	4g\	-si-	.
2GG/	-mus	.	2B\	-mus	.	2d\	-mus	.
=81	=81	=81	=81	=81	=81	=81	=81	=81
*	*ij	*	*	*	*	*	*	*
4AA/	al-	.	2.e\	al-	.	4a\	.	.
4BB/	.	.	.	.	.	8g\L	.	.
.	.	.	.	.	.	8f\J	.	.
4C/	.	.	.	.	.	4e\	al-	.
4D/	.	.	8d\L	.	.	4f\	.	.
.	.	.	8c\J	.	.	.	.	.
2E\	.	.	2B\	.	.	2g#X\	.	.
!	!	!	!LO:LB:g=original	!	!	!	!	!
=82	=82	=82	=82	=82	=82	=82	=82	=82
2C/	-tiſ-	.	2c\	-tiſ-	.	1a	-tiſ-	.
2D/	.	.	2.B\	.	.	.	.	.
2E\	-si-	.	.	.	.	2g#X\	-si-	.
.	.	.	4B\	-si-	.	.	.	.
=83	=83	=83	=83	=83	=83	=83	=83	=83
*M4/4	*	*	*M4/4	*	*	*M4/4	*	*
*met(c)	*	*	*met(c)	*	*	*met(c)	*	*
2AA/	mus	.	2A,/	-mus	.	2a\	-mus	.
*	*Xij	*	*	*	*	*	*	*
1F\	Je-	.	2.c\	Je-	.	1a\	Je-	.
=84-	=84	=84	=84-	=84	=84	=84-	=84	=84
.	.	.	.	.	.	.	.	.
.	.	.	4d\	.	.	.	.	.
2E\	-ſu	.	2e\	.	.	2g\	-ſu	.
!	!	!	!	!	!	!LO:LB:g=original	!	!
=85-	=85	=85	=85	=85	=85	=85	=85	=85
0D	Chri-	.	2A/	.	.	4.f#X\	Chri-	.
.	.	.	.	.	.	16e\LL	.	.
.	.	.	.	.	.	16f#\JJ	.	.
.	.	.	2B\	-ſu	.	1g\	.	.
=86	=86	=86	=86	=86	=86	=86-	=86	=86
.	.	.	1d	Chri-	.	.	.	.
.	.	.	.	.	.	2f#X\	.	.
!LO:LB:g=original	!	!	!	!	!	!	!	!
=87	=87	=87	=87-	=87	=87	=87	=87	=87
2GG;/	-ſte	.	2d\	-ſte	.	2g\	-ſte	.
4r	.	.	4r	.	.	4r	.	.
4C/	Cum	.	4e\	Cum	.	4g\	Cum	.
=88	=88	=88	=88	=88	=88	=88	=88	=88
4C/	San-	.	4c\	San-	.	4g\	San-	.
4GG/	-cto	.	4d\	-cto	.	4g\	-cto	.
4.C/	Spi-	.	4.e\	Spi-	.	4.g\	Spi-	.
8C/	-ri-	.	8e\	-ri-	.	8g\	-ri-	.
=89	=89	=89	=89	=89	=89	=89	=89	=89
4G\	-tu	.	4d\	-tu	.	4g\	-tu	.
*	*ij	*	*	*ij	*	*	*ij	*
4GG/	Cum	.	4B\	Cum	.	4g\	Cum	.
4C/	San-	.	4c\	San-	.	4e\	San-	.
4BB/	-cto	.	4d\	-cto	.	4g\	-cto	.
=90	=90	=90	=90-	=90	=90	=90	=90	=90
2.C/	Spi-	.	2.e\	Spi-	.	2.g\	Spi-	.
4C/	-ri-	.	4e\	-ri-	.	4g\	-ri-	.
=91||	=91||	=91||	=91||	=91||	=91||	=91||	=91||	=91||
*M3/2	*	*	*M3/2	*	*	*M3/2	*	*
!	!	!	!	!	!LO:DY:b:t=F.	!	!	!
1GG	-tu	.	1d	-tu	f	1g	-tu	.
*	*Xij	*	*	*Xij	*	*	*Xij	*
!	!	!	!	!	!	!	!	!LO:DY:b:t=Forte
2G\	in	.	2B\	in	.	2g\	in	f
!	!	!	!LO:LB:g=original	!	!	!	!	!
=92	=92	=92	=92	=92	=92	=92-	=92	=92
!	!	!LO:DY:b:t=F	!	!	!	!	!	!
2.G\	glo-	f	2.B\	glo-	.	2.g\	glo-	.
4G\	-ri-	.	4B\	-ri-	.	4g\	-ri-	.
2E\	-a	.	2c\	-a	.	2g\	a	.
=93	=93	=93	=93	=93	=93	=93	=93	=93
1F	De-	.	1A	De-	.	1a	De-	.
2D/	-i	.	2B\	-i	.	2f\	-i	.
!	!	!	!	!	!	!LO:LB:g=original	!	!
=94	=94	=94	=94	=94	=94	=94	=94	=94
2.E\	Pa-	.	2.G/	Pa-	.	2.g\	Pa-	.
4C/	-tris	.	4G/	-tris	.	4g\	-tris	.
2D/	am-	.	2F#X/	a-	.	2d\	a-	.
=95	=95	=95	=95	=95	=95	=95	=95	=95
1GG	-[[en]]-	.	1G	-men	.	1d	-men	.
2G\	-en	.	2d\	in	.	2g\	in	.
!LO:LB:g=original	!	!	!	!	!	!	!	!
=96	=96	=96	=96-	=96	=96	=96	=96	=96
!	!	!	!	!	!	!	!	!LO:DY:b:t=Piano
2.G\	Glo-	.	2.d\	glo-	.	2.g\	glo-	p
!	!	!LO:DY:b:t=P.	!	!	!LO:DY:b:t=Pian	!	!	!
4G\	-ri-	p	4d\	-ri-	p	4g\	-ri-	.
2E\	-a	.	2e\	-a	.	2g\	-a	.
=97	=97	=97	=97	=97	=97	=97	=97	=97
1F	De-	.	1c	De-	.	1a	De-	.
2D/	-i	.	2d\	-i	.	2f\	-i	.
=98	=98	=98	=98	=98	=98	=98-	=98	=98
(>2.E\	Pa-	.	2.B\	Pa-	.	2.g\	Pa-	.
4C/)	-tris	.	4c\	-tris	.	4g\	-tris	.
2D/	a-	.	2A\	a-	.	2c\	a-	.
=99-	=99	=99	=99-	=99	=99	=99	=99	=99
1.GG	-men	.	1.B	-men	.	1.d	-men	.
=100	=100	=100	=100	=100	=100	=100	=100	=100
!	!	!LO:DY:b:t=F.	!	!	!	!	!	!LO:DY:b:t=Forte
1G	a-	f	2.B\	a-	.	1g	a-	f
!	!	!	!	!	!LO:DY:b:t=F.	!	!	!
.	.	.	4c\	.	f	.	.	.
2G\	-men	.	2d\	-men	.	2g\	-men	.
=101	=101	=101	=101	=101	=101	=101	=101	=101
*	*ij	*	*	*ij	*	*	*ij	*
1GG	a-	.	1B	a-	.	1g	a-	.
2GG/	-men	.	2d\	-men	.	2g\	-men	.
!	!	!	!LO:LB:g=original	!	!	!	!	!
=102-	=102	=102	=102	=102	=102	=102	=102	=102
!	!	!LO:DY:b:t=P.	!	!	!	!	!	!LO:DY:b:t=Piano
1G	a-	p	1d	a-	.	1g	a-	p
2GG/	-men	.	2B\	-men	.	2g\	-men	.
=103	=103	=103	=103	=103	=103	=103-	=103	=103
!	!	!	!	!	!LO:DY:b:t=P.	!	!	!
1GG	a-	.	1d	a-	p	1g	a-	.
2GG/	-men	.	2B\	-men	.	2g\	-men	.
*	*Xij	*	*	*Xij	*	*	*Xij	*
=104-	=104	=104	=104	=104	=104	=104	=104	=104
!	!	!LO:DY:b:t=F.	!	!	!	!	!	!
1G	De-	f	1d	De-	.	1g	De-	.
!	!	!	!	!	!LO:DY:b:t=F.	!	!	!
2F#X\	-i	.	2d\	-i	f	2d\	-i	.
!	!	!	!	!	!	!LO:LB:g=original	!	!
=105	=105	=105	=105	=105	=105	=105	=105	=105
1G	Pa-	.	1d	Pa-	.	2d\	Pa-	.
.	.	.	.	.	.	1g	-tris	.
2C/	-tris	.	2e\	-tris	.	.	.	.
=106	=106	=106	=106-	=106	=106	=106	=106	=106
4GG/	a-	.	1.d	a-	.	1g	a-	.
4AA/	.	.	.	.	.	.	.	.
4BB/	.	.	.	.	.	.	.	.
4C/	.	.	.	.	.	.	.	.
2D/	-men	.	.	.	.	2f#X\	-men	.
!LO:LB:g=original	!	!	!	!	!	!	!	!
=107	=107	=107	=107	=107	=107	=107-	=107	=107
2BB/	am-	.	2d\	-men	.	(1g	a-	.
2C/	.	.	2e\	.	.	.	.	.
2D/	.	.	2d\	.	.	2f#X\)	-men	.
=108	=108	=108	=108	=108	=108	=108-	=108	=108
*	*	*	*	*	*	*	*ij	*
2GG/	-en	.	2B\	De-	.	2g\	a-	.
!	!	!LO:DY:b:t=P.	!	!	!LO:DY:b:t=P.	!	!	!
2G\	De-	p	2G/	-i	p	2d\	.	.
2F#X\	-i	.	2A/	Pa-	.	2d\	-men	.
=109	=109	=109	=109	=109	=109	=109	=109	=109
!	!	!	!	!	!	!	!	!LO:DY:b:t=Pian
1G	Pa-	.	1B	-tris	.	2d\	a-	p
.	.	.	.	.	.	1g	-men	.
2C/	-tris	.	2c\	a-	.	.	.	.
=110	=110	=110	=110-	=110	=110	=110	=110	=110
4GG/	am-	.	1B	-men	.	1g	a-	.
4AA/	.	.	.	.	.	.	.	.
4BB/	.	.	.	.	.	.	.	.
4C/	.	.	.	.	.	.	.	.
2D/	-en	.	2A/	a-	.	2f#X\	.	.
=111	=111	=111	=111	=111	=111	=111-	=111	=111
2BB/	a-	.	2B\	.	.	1g	.	.
2C/	.	.	1A	.	.	.	.	.
2D/	.	.	.	.	.	2f#X\	-men	.
*	*	*	*	*	*	*	*Xij	*
=112||	=112||	=112||	=112||	=112||	=112||	=112||	=112||	=112||
*M4/4	*	*	*M4/4	*	*	*M4/4	*	*
*met(c)	*	*	*met(c)	*	*	*met(c)	*	*
2GG/	-men	.	2B\	-men	.	2g\	A-	.
1C/	a-	.	1e\	a-	.	2.e\	.	.
=113-	=113	=113	=113-	=113	=113	=113-	=113	=113
.	.	.	.	.	.	.	.	.
.	.	.	.	.	.	4f\	.	.
2BB/	-men	.	2d\	-men	.	4g\	.	.
.	.	.	.	.	.	4d\	.	.
=114	=114	=114	=114-	=114	=114	=114-	=114	=114
1D	a-	.	1d	a-	.	1d	-men	.
=115-	=115	=115	=115-	=115	=115	=115-	=115	=115
0GG	-men	.	0d	-men	.	0d	.	.
=116-	=116	=116	=116-	=116	=116	=116-	=116	=116
.	.	.	.	.	.	.	.	.
==	==	==	==	==	==	==	==	==
*-	*-	*-	*-	*-	*-	*-	*-	*-
!!!system-decoration: [s1,s2,s3]
!!!RDF**kern: > = above
!!!RDF**kern: < = below
!!!ENC: Kamil Watkowski
!!!END: 2021-07-07
